svgs/regular/box-taped.svg

<svg xmlns="http://www.w3.org/2000/svg" viewBox="0 0 448 512"><!-- Font Awesome Pro 6.0.0-alpha2 by @fontawesome - https://fontawesome.com License - https://fontawesome.com/license (Commercial License) --><path d="M439.781 145.387L394.352 64.623C383.016 44.471 361.691 32 338.57 32H109.43C86.309 32 64.984 44.471 53.648 64.623L8.219 145.387C2.83 154.967 0 165.773 0 176.764V416C0 451.346 28.654 480 64 480H384C419.346 480 448 451.346 448 416V176.764C448 165.773 445.17 154.967 439.781 145.387ZM352.516 88.154L392.182 158.672H287.639L266.182 80H338.57C344.342 80 349.686 83.125 352.516 88.154ZM95.484 88.154C98.314 83.125 103.658 80 109.43 80H181.818L160.361 158.672H55.818L95.484 88.154ZM400 416C400 424.822 392.822 432 384 432H64C55.178 432 48 424.822 48 416V206.672H160V256C160 273.672 174.326 288 192 288H256C273.674 288 288 273.672 288 256V206.672H400V416Z"/></svg>

<svg xmlns="http://www.w3.org/2000/svg" viewBox="0 0 448 512"><!--! Font Awesome Pro 6.0.0-alpha3 by @fontawesome - https://fontawesome.com License - https://fontawesome.com/license (Commercial License) --><path d="M439.8 145.4l-45.43-80.76C383 44.47 361.7 32 338.6 32H109.4c-23.12 0-44.45 12.47-55.78 32.62L8.219 145.4C2.83 154.1 0 165.8 0 176.8V416c0 35.35 28.65 64 64 64h320c35.35 0 64-28.65 64-64V176.8C448 165.8 445.2 154.1 439.8 145.4zM352.5 88.15l39.67 70.52h-104.5L266.2 80h72.39C344.3 80 349.7 83.13 352.5 88.15zM95.48 88.15C98.31 83.13 103.7 80 109.4 80h72.39L160.4 158.7H55.82L95.48 88.15zM400 416c0 8.822-7.178 16-16 16H64c-8.822 0-16-7.178-16-16V206.7H160V256c0 17.67 14.31 32 31.98 32H256c17.67 0 32-14.33 32-32V206.7h112V416z"/></svg>
